package/converter/svg/regular/crop-simple.svg

<svg xmlns="http://www.w3.org/2000/svg" viewBox="0 0 512 512"><!-- Font Awesome Pro 6.0.0-alpha2 by @fontawesome - https://fontawesome.com License - https://fontawesome.com/license (Commercial License) --><path d="M488 384H432V120C432 97.938 414.062 80 392 80H160V128H384V488C384 501.25 394.75 512 408 512S432 501.25 432 488V432H488C501.25 432 512 421.25 512 408S501.25 384 488 384ZM128 384V24C128 10.75 117.25 0 104 0S80 10.75 80 24V80H24C10.75 80 0 90.75 0 104S10.75 128 24 128H80V392C80 414.062 97.938 432 120 432H352V384H128Z"/></svg>

<svg xmlns="http://www.w3.org/2000/svg" viewBox="0 0 512 512"><!--! Font Awesome Pro 6.6.0 by @fontawesome - https://fontawesome.com License - https://fontawesome.com/license (Commercial License) Copyright 2024 Fonticons, Inc. --><path d="M128 24c0-13.3-10.7-24-24-24S80 10.7 80 24l0 56L24 80C10.7 80 0 90.7 0 104s10.7 24 24 24l56 0 0 248c0 30.9 25.1 56 56 56l216 0 0-48-216 0c-4.4 0-8-3.6-8-8l0-352zM384 488c0 13.3 10.7 24 24 24s24-10.7 24-24l0-56 56 0c13.3 0 24-10.7 24-24s-10.7-24-24-24l-56 0 0-248c0-30.9-25.1-56-56-56L160 80l0 48 216 0c4.4 0 8 3.6 8 8l0 352z"/></svg>
